assets/images/svg/nachos_24.svg

<svg width="24" height="24" viewBox="0 0 24 24" fill="none" xmlns="http://www.w3.org/2000/svg">
<path d="M14.5 11.5L17.7451 17.5H6.5L9.30957 11.7912C9.37448 11.8504 9.32777 11.7912 9.42358 11.7912C9.52906 11.7912 9.62456 11.8378 9.69384 11.9133C9.76313 11.9885 9.80588 12.0926 9.80588 12.2079V13.6891C9.80588 14.0006 10.0378 14.253 10.3236 14.253C10.4666 14.253 10.5958 14.1897 10.6894 14.0877C10.783 13.9857 10.8411 13.8449 10.8411 13.6891V13.0541C10.8411 12.3565 11.3601 11.7912 12.0002 11.7912C12.3204 11.7912 12.61 11.9327 12.8197 12.1609C13.0294 12.3895 13.1592 12.7055 13.1592 13.0541V13.6891C13.1592 14.0006 13.3908 14.253 13.6767 14.253C13.8196 14.253 13.9491 14.1897 14.0428 14.0877C14.1367 13.9857 14.1944 13.8449 14.1944 13.6891V12.2079C14.1944 11.9776 14.3658 11.7912 14.5767 11.7912C14.6725 11.7912 14.4351 11.5592 14.5 11.5Z" fill="#F7B239"/>
<path d="M9.58912 12.6953L12 7.69531L11.523 7.86144L9 12.0516L9.08464 12.5075" fill="#90BC42"/>
<path d="M10 11.9117L7.19162 17.6953L6.5 17.5L9.44204 11.6953L10 11.9117Z" fill="#CE8E5E"/>
<path d="M14.9475 11.6525C14.9836 11.71 15 11.7712 15 11.8308C15 11.9376 14.9472 12.0391 14.8596 12.1065C14.7938 12.1573 14.7087 12.1888 14.6116 12.1888C14.3977 12.1888 14.2241 12.3487 14.2241 12.5462V13.817C14.2241 13.9506 14.1655 14.0714 14.0703 14.159C13.9754 14.2465 13.8441 14.3008 13.6993 14.3008C13.4095 14.3008 13.1748 14.0843 13.1748 13.817V13.2722C13.1748 12.9731 13.0432 12.7021 12.8306 12.506C12.6181 12.3102 12.3245 12.1888 12 12.1888C11.3512 12.1888 10.8251 12.6738 10.8251 13.2722V13.817C10.8251 13.9506 10.7663 14.0714 10.6714 14.159C10.5765 14.2465 10.4456 14.3008 10.3007 14.3008C10.0109 14.3008 9.77589 14.0843 9.77589 13.817V12.5462C9.77589 12.4473 9.73255 12.358 9.66233 12.2935C9.59211 12.2288 9.49531 12.1888 9.38839 12.1888C9.29128 12.1888 9.20587 12.1573 9.14008 12.1065C9.00406 12.0012 8.95186 11.8133 9.05245 11.6525L11.6644 7.47958C11.8137 7.24118 12.1866 7.24118 12.3356 7.47958L14.9475 11.6525Z" fill="#72BD87"/>
<path d="M13.7858 11.6953C13.7118 11.6953 13.6397 11.6587 13.6 11.5932L12.0288 9.00152C11.9696 8.90389 12.0047 8.77905 12.1072 8.72268C12.2097 8.66634 12.3408 8.69976 12.4 8.79739L13.9712 11.3891C14.0304 11.4867 13.9953 11.6116 13.8928 11.6679C13.8591 11.6865 13.8222 11.6953 13.7858 11.6953Z" fill="white"/>
<path d="M16.7974 16.6953C16.7273 16.6953 16.6592 16.6609 16.6216 16.5993L15.0272 13.9834C14.9712 13.8916 15.0044 13.7741 15.1014 13.7211C15.1983 13.6681 15.3224 13.6995 15.3784 13.7913L16.9728 16.4072C17.0288 16.4991 16.9956 16.6165 16.8986 16.6696C16.8667 16.687 16.8318 16.6953 16.7974 16.6953Z" fill="white"/>
<path d="M17.9698 17.3574L14.9886 12.1939C14.9904 12.1909 14.9924 12.188 14.9942 12.1849C15.1014 11.9992 15.1014 11.7774 14.9942 11.5917L12.5145 7.29665C12.4072 7.11089 12.2151 7 12.0007 7C11.7862 7 11.5941 7.11089 11.4869 7.29665L9.00716 11.5917C8.89993 11.7774 8.8999 11.9992 9.00716 12.1849C9.0089 12.1879 9.01082 12.1907 9.01262 12.1937L6.03128 17.3574C5.99104 17.4271 5.99104 17.513 6.03128 17.5827C6.07153 17.6524 6.14586 17.6953 6.22635 17.6953H17.7748C17.8552 17.6953 17.9296 17.6524 17.9698 17.5827C18.0101 17.513 18.0101 17.4271 17.9698 17.3574ZM9.3973 11.817L11.877 7.5219C11.9143 7.45745 11.9759 7.45051 12.0007 7.45051C12.0255 7.45051 12.0871 7.45745 12.1243 7.5219L14.6041 11.817C14.6412 11.8814 14.6165 11.9382 14.6041 11.9597C14.5916 11.9812 14.5548 12.0311 14.4804 12.0311C14.1533 12.0311 13.8872 12.2972 13.8872 12.6244V13.9323C13.8872 14.0827 13.7647 14.2052 13.6143 14.2052C13.4638 14.2052 13.3414 14.0827 13.3414 13.9323V13.3718C13.3414 12.6325 12.74 12.0311 12.0007 12.0311C11.2615 12.0311 10.6601 12.6325 10.6601 13.3718V13.9323C10.6601 14.0827 10.5376 14.2052 10.3872 14.2052C10.2367 14.2052 10.1143 14.0827 10.1143 13.9323V12.6244C10.1143 12.2972 9.84814 12.0311 9.52101 12.0311C9.44662 12.0311 9.40976 11.9812 9.39736 11.9597C9.3849 11.9382 9.36009 11.8814 9.3973 11.817ZM6.6165 17.2448L9.37673 12.464C9.42313 12.4754 9.47139 12.4816 9.52095 12.4816C9.59967 12.4816 9.6637 12.5457 9.6637 12.6244V13.9323C9.6637 14.3312 9.98822 14.6557 10.3871 14.6557C10.786 14.6557 11.1105 14.3312 11.1105 13.9323V13.3718C11.1105 12.8809 11.5098 12.4816 12.0007 12.4816C12.4915 12.4816 12.8908 12.8809 12.8908 13.3718V13.9323C12.8908 14.3312 13.2153 14.6557 13.6142 14.6557C14.0131 14.6557 14.3376 14.3312 14.3376 13.9323V12.6244C14.3376 12.5457 14.4017 12.4816 14.4804 12.4816C14.5299 12.4816 14.578 12.4754 14.6244 12.4641L17.3846 17.2448H6.6165Z" fill="black"/>
<path d="M14.4318 16.4896C14.5562 16.4896 14.6571 16.3887 14.6571 16.2643C14.6571 16.1399 14.5562 16.0391 14.4318 16.0391C14.3074 16.0391 14.2065 16.1399 14.2065 16.2643C14.2065 16.3887 14.3074 16.4896 14.4318 16.4896Z" fill="black"/>
<path d="M8.48697 16.015C8.61138 16.015 8.71223 15.9141 8.71223 15.7897C8.71223 15.6653 8.61138 15.5645 8.48697 15.5645C8.36257 15.5645 8.26172 15.6653 8.26172 15.7897C8.26172 15.9141 8.36257 16.015 8.48697 16.015Z" fill="black"/>
<path d="M11.9296 16.0716C12.054 16.0716 12.1549 15.9708 12.1549 15.8463C12.1549 15.7219 12.054 15.6211 11.9296 15.6211C11.8052 15.6211 11.7043 15.7219 11.7043 15.8463C11.7043 15.9708 11.8052 16.0716 11.9296 16.0716Z" fill="black"/>
<path d="M12.26 14.0736C12.3845 14.0736 12.4853 13.9727 12.4853 13.8483C12.4853 13.7239 12.3845 13.623 12.26 13.623C12.1356 13.623 12.0348 13.7239 12.0348 13.8483C12.0348 13.9727 12.1356 14.0736 12.26 14.0736Z" fill="black"/>
</svg>

<svg xmlns="http://www.w3.org/2000/svg" width="24" height="24" fill="none">
    <path fill="#F7B239"
        d="m14.5 11.5 3.25 6H6.5l2.81-5.7c.06.05.02 0 .11 0 .1 0 .2.04.27.11.07.08.12.18.12.3v1.48c0 .31.23.56.51.56a.5.5 0 0 0 .37-.16c.1-.1.15-.25.15-.4v-.64c0-.7.52-1.26 1.16-1.26.32 0 .61.14.82.37.2.23.34.55.34.9v.63c0 .31.23.56.52.56a.5.5 0 0 0 .36-.16c.1-.1.15-.25.15-.4V12.2c0-.23.18-.42.39-.42.1 0-.14-.23-.08-.29Z" />
    <path fill="#90BC42" d="m9.59 12.7 2.41-5-.48.16L9 12.06l.08.45" />
    <path fill="#CE8E5E" d="M10 11.91 7.2 17.7l-.7-.2 2.94-5.8.56.21Z" />
    <path fill="#72BD87"
        d="M14.95 11.65c.03.06.05.12.05.18 0 .1-.05.2-.14.28a.4.4 0 0 1-.25.08c-.21 0-.39.16-.39.36v1.27c0 .13-.05.25-.15.34a.55.55 0 0 1-.37.14c-.29 0-.53-.22-.53-.48v-.55c0-.3-.13-.57-.34-.76-.21-.2-.5-.32-.83-.32-.65 0-1.17.48-1.17 1.08v.55c0 .13-.06.25-.16.34a.55.55 0 0 1-.37.14c-.29 0-.52-.22-.52-.48v-1.27c0-.1-.05-.2-.12-.26a.4.4 0 0 0-.27-.1.4.4 0 0 1-.25-.08.34.34 0 0 1-.09-.46l2.61-4.17a.4.4 0 0 1 .68 0l2.6 4.17Z" />
    <path fill="#fff"
        d="M13.79 11.7a.22.22 0 0 1-.19-.1L12.03 9a.2.2 0 0 1 .08-.28c.1-.05.23-.02.29.08l1.57 2.59a.2.2 0 0 1-.08.28.22.22 0 0 1-.1.03ZM16.8 16.7a.2.2 0 0 1-.18-.1l-1.6-2.62a.19.19 0 0 1 .08-.26.2.2 0 0 1 .28.07l1.6 2.62c.05.09.02.2-.08.26a.21.21 0 0 1-.1.03Z" />
    <path fill="#000"
        d="m17.97 17.36-2.98-5.17c.11-.2.11-.41 0-.6l-2.48-4.3a.59.59 0 0 0-.5-.29c-.22 0-.42.11-.52.3L9 11.6c-.11.18-.11.4 0 .58v.01l-2.98 5.17a.23.23 0 0 0 .2.34h11.54a.23.23 0 0 0 .2-.34ZM9.4 11.82l2.48-4.3c.03-.06.1-.07.12-.07.03 0 .09 0 .12.07l2.48 4.3c.04.06.02.12 0 .14a.14.14 0 0 1-.12.07.6.6 0 0 0-.6.6v1.3a.27.27 0 0 1-.54 0v-.56a1.34 1.34 0 0 0-2.68 0v.56a.27.27 0 0 1-.55 0v-1.3a.6.6 0 0 0-.59-.6.14.14 0 0 1-.12-.07.14.14 0 0 1 0-.14Zm-2.78 5.42 2.76-4.78c.04.02.1.02.14.02.08 0 .14.07.14.14v1.31a.72.72 0 0 0 1.45 0v-.56a.9.9 0 0 1 1.78 0v.56a.72.72 0 0 0 1.45 0v-1.3c0-.08.06-.15.14-.15.05 0 .1 0 .14-.02l2.76 4.78H6.62Z" />
    <path fill="#000"
        d="M14.43 16.49a.23.23 0 1 0 0-.45.23.23 0 0 0 0 .45ZM8.49 16.02a.23.23 0 1 0 0-.46.23.23 0 0 0 0 .46ZM11.93 16.07a.23.23 0 1 0 0-.45.23.23 0 0 0 0 .45ZM12.26 14.07a.23.23 0 1 0 0-.45.23.23 0 0 0 0 .45Z" />
</svg>
